icons/lines/money-four.svg

<svg xmlns="http://www.w3.org/2000/svg" width="24" height="24" viewBox="0 0 24 24" fill="none" stroke="currentColor" stroke-width="2" stroke-linecap="round" stroke-linejoin="round" >
  <path d="M17 20.5H7C4 20.5 2 19 2 15.5V8.5C2 5 4 3.5 7 3.5H17C20 3.5 22 5 22 8.5V15.5C22 19 20 20.5 17 20.5Z" stroke-miterlimit="10"/>
  <path d="M12 15C13.6569 15 15 13.6569 15 12C15 10.3431 13.6569 9 12 9C10.3431 9 9 10.3431 9 12C9 13.6569 10.3431 15 12 15Z" stroke-miterlimit="10"/>
  <path d="M8.5 6H7C5.62 6 4.5 7.12 4.5 8.5V10" stroke-miterlimit="10"/>
  <path d="M15.5 6H17C18.38 6 19.5 7.12 19.5 8.5V10" stroke-miterlimit="10"/>
  <path d="M8.5 18H7C5.62 18 4.5 16.88 4.5 15.5V14" stroke-miterlimit="10"/>
  <path d="M15.5 18H17C18.38 18 19.5 16.88 19.5 15.5V14" stroke-miterlimit="10"/>
  </svg>

<svg xmlns="http://www.w3.org/2000/svg" width="24" height="24" viewBox="0 0 24 24" fill="none" stroke="currentColor" stroke-width="2" stroke-linecap="round" stroke-linejoin="round">
  <path d="M15.5 18H17a2.5 2.5 0 0 0 2.5-2.5V14" />
  <path d="M15.5 6H17a2.5 2.5 0 0 1 2.5 2.5V10" />
  <path d="M7 20.5c-3 0-5-1.5-5-5v-7c0-3.5 2-5 5-5h10c3 0 5 1.5 5 5v7c0 3.5-2 5-5 5z" />
  <path d="M8.5 18H7a2.5 2.5 0 0 1-2.5-2.5V14" />
  <path d="M8.5 6H7a2.5 2.5 0 0 0-2.5 2.5V10" />
  <circle cx="12" cy="12" r="3" />
</svg>
